src/assets/outline/Microscope.svg

<svg width="24" height="24" viewBox="0 0 24 24"  xmlns="http://www.w3.org/2000/svg">
<path d="M15.0301 11.5197C14.7901 11.5197 14.5501 11.3997 14.4101 11.1897L11.2101 6.40969C11.1001 6.23969 11.0601 6.0397 11.1001 5.8497C11.1401 5.6597 11.2501 5.47969 11.4201 5.36969L17.0801 1.57968C17.5201 1.27968 18.0501 1.17969 18.5701 1.27969C19.0901 1.37969 19.5401 1.67969 19.8401 2.11969L21.6601 4.82968C22.2701 5.73968 22.0301 6.97969 21.1101 7.58969L15.4601 11.3797C15.3201 11.4797 15.1801 11.5197 15.0301 11.5197ZM12.8801 6.1997L15.2401 9.7297L20.2701 6.35968C20.5001 6.20968 20.5601 5.89968 20.4001 5.67968L18.5801 2.96969C18.5101 2.85969 18.4001 2.7897 18.2701 2.7597C18.1401 2.7297 18.0101 2.75968 17.9001 2.82968L12.8801 6.1997Z" />
<path d="M9.94022 14.2398C9.70022 14.2398 9.46022 14.1198 9.32022 13.9098L6.76022 10.0898C6.53022 9.74977 6.62022 9.27976 6.97022 9.04976L11.7502 5.84978C11.9202 5.73978 12.1202 5.69977 12.3102 5.73977C12.5102 5.77977 12.6802 5.88977 12.7902 6.05977L15.3502 9.87978C15.5802 10.2198 15.4902 10.6898 15.1402 10.9198L10.3602 14.1198C10.2302 14.1998 10.0802 14.2398 9.94022 14.2398ZM8.42022 9.87978L10.1402 12.4498L13.6702 10.0898L11.9502 7.50979L8.42022 9.87978Z" />
<path d="M5.2799 16.8198C4.7199 16.8198 4.1599 16.5498 3.8199 16.0398L2.68991 14.3598C2.42991 13.9698 2.3399 13.5098 2.4299 13.0498C2.5199 12.5898 2.7799 12.1998 3.1699 11.9398L7.11991 9.29976C7.45991 9.06976 7.92991 9.15979 8.15991 9.50979L10.3999 12.8498C10.6299 13.1898 10.5399 13.6598 10.1899 13.8898L6.2399 16.5298C5.9499 16.7198 5.6099 16.8198 5.2799 16.8198ZM7.32991 10.9498L4.00991 13.1698C3.89991 13.2498 3.85991 13.3998 3.93991 13.5198L5.0699 15.1998C5.1499 15.3098 5.2999 15.3498 5.4199 15.2698L8.7399 13.0498L7.32991 10.9498Z" />
<path d="M7.56019 22.7498C7.46019 22.7498 7.3502 22.7298 7.2502 22.6798C6.8702 22.5098 6.71019 22.0599 6.88019 21.6899L11.3702 11.8899C11.5402 11.5099 11.9902 11.3498 12.3602 11.5198C12.7402 11.6898 12.9002 12.1399 12.7302 12.5099L8.24019 22.3098C8.11019 22.5898 7.84019 22.7498 7.56019 22.7498Z" />
<path d="M16.44 22.7502C16.15 22.7502 15.88 22.5902 15.76 22.3102L11.32 12.5102C11.15 12.1302 11.32 11.6902 11.69 11.5202C12.06 11.3502 12.51 11.5202 12.68 11.8902L17.12 21.6902C17.29 22.0702 17.12 22.5102 16.75 22.6802C16.65 22.7302 16.55 22.7502 16.44 22.7502Z" />
</svg>

<?xml version="1.0" encoding="UTF-8"?>
<svg width="24" height="24" viewBox="0 0 24 24" xmlns="http://www.w3.org/2000/svg">
 <path d="m15.03 11.52c-0.24 0-0.48-0.12-0.62-0.33l-3.2-4.78c-0.11-0.17-0.15-0.36999-0.11-0.55999s0.15-0.37001 0.32-0.48001l5.66-3.79c0.44-0.3 0.97-0.39999 1.49-0.29999s0.97 0.4 1.27 0.84l1.82 2.71c0.61 0.91 0.37 2.15-0.55 2.76l-5.65 3.79c-0.14 0.1-0.28 0.14-0.43 0.14zm-2.15-5.32 2.36 3.53 5.03-3.37c0.23-0.15 0.29-0.46 0.13-0.68l-1.82-2.71c-0.07-0.11-0.18-0.17999-0.31-0.20999s-0.26-2e-5 -0.37 0.06998l-5.02 3.37z"/>
 <path d="m9.9402 14.24c-0.24 0-0.48-0.12-0.62-0.33l-2.56-3.82c-0.23-0.34003-0.14-0.81004 0.21-1.04l4.78-3.2c0.17-0.11 0.37-0.15001 0.56-0.11001 0.2 0.04 0.37 0.15 0.48 0.32l2.56 3.82c0.23 0.34002 0.14 0.81002-0.21 1.04l-4.78 3.2c-0.13 0.08-0.28 0.12-0.41998 0.12zm-1.52-4.36 1.72 2.57 3.53-2.36-1.72-2.58-3.53 2.37z"/>
 <path d="m5.2799 16.82c-0.56 0-1.12-0.27-1.46-0.78l-1.13-1.68c-0.26-0.39-0.35001-0.85-0.26001-1.31s0.35-0.85 0.74-1.11l3.95-2.64c0.34-0.23 0.81-0.13997 1.04 0.21003l2.24 3.34c0.23 0.34 0.14 0.81-0.21 1.04l-3.95 2.64c-0.29 0.19-0.63 0.29-0.96 0.29zm2.05-5.87-3.32 2.22c-0.11 0.08-0.15 0.23-0.07 0.35l1.13 1.68c0.08 0.11 0.23 0.15 0.35 0.07l3.32-2.22-1.41-2.1z"/>
 <path d="m7.5602 22.75c-0.1 0-0.20999-0.02-0.30999-0.07-0.38-0.17-0.54001-0.6199-0.37001-0.9899l4.49-9.8c0.17-0.38 0.62-0.5401 0.99-0.3701 0.38 0.17 0.54 0.6201 0.37 0.9901l-4.49 9.7999c-0.13 0.28-0.4 0.44-0.68 0.44z"/>
 <path d="m16.44 22.75c-0.29 0-0.56-0.16-0.68-0.44l-4.44-9.8c-0.17-0.38 0-0.82 0.37-0.99s0.82 0 0.99 0.37l4.44 9.8c0.17 0.38 0 0.82-0.37 0.99-0.1 0.05-0.2 0.07-0.31 0.07z"/>
</svg>
